( pcb2gcode 1.3.2 )
( Software-independent Gcode )

( This file uses 7 drill bit sizes. )
( Bit sizes: [0.762mm] [0.8mm] [1.001mm] [1.016mm] [1.1mm] [1.5mm] [3.2mm] )

G94       (Millimeters per minute feed rate.)
G21       (Units == Millimeters.)
G91.1     (Incremental arc distance mode.)
G90       (Absolute coordinates.)
S1000     (RPM spindle speed.)

G00 Z30.00000 (Retract)
T1
M5      (Spindle stop.)
G04 P1.00000
(MSG, Change tool bit to drill size 0.76200 mm)
M6      (Tool change.)
M0      (Temporary machine stop.)
M3      (Spindle on clockwise.)
G0 Z2.00000
G04 P1.00000

G81 R2.00000 Z-2.50000 F500.00000 X15.96330 Y28.21330
X15.96330 Y33.29330

G00 Z30.00000 (Retract)
T2
M5      (Spindle stop.)
G04 P1.00000
(MSG, Change tool bit to drill size 0.80000 mm)
M6      (Tool change.)
M0      (Temporary machine stop.)
M3      (Spindle on clockwise.)
G0 Z2.00000
G04 P1.00000

G81 R2.00000 Z-2.50000 F500.00000 X22.17330 Y25.17330
X22.17330 Y30.25330
X24.71330 Y27.71330
X27.92330 Y25.17330
X27.92330 Y30.25330
X30.46330 Y27.71330
X33.71330 Y30.29330
X36.25330 Y27.75330
X33.71330 Y25.21330

G00 Z30.00000 (Retract)
T3
M5      (Spindle stop.)
G04 P1.00000
(MSG, Change tool bit to drill size 1.00100 mm)
M6      (Tool change.)
M0      (Temporary machine stop.)
M3      (Spindle on clockwise.)
G0 Z2.00000
G04 P1.00000

G81 R2.00000 Z-2.50000 F500.00000 X6.21330 Y16.46230
X11.71330 Y21.71330
X11.21330 Y26.71230
X6.21330 Y26.46430
X11.21330 Y36.71430
X17.21330 Y40.71330
X21.71630 Y21.71330
X40.21330 Y34.96030
X45.21330 Y34.96030
X50.21330 Y34.96030
X37.21330 Y40.71330
X40.21330 Y44.96330
X45.21330 Y44.96330
X50.21330 Y44.96330
X66.23430 Y34.96330
X66.23430 Y40.13730
X66.23430 Y44.96330
X76.23630 Y44.96330
X76.23630 Y40.13730
X76.23630 Y34.96330
X76.10430 Y16.28630
X76.10430 Y11.28630
X76.10430 Y6.28630
X66.10230 Y6.28630
X66.10230 Y11.28630
X66.10230 Y16.28630
X50.21630 Y6.21330
X50.21630 Y11.21330
X50.21630 Y16.21330
X40.21330 Y16.21330
X40.21330 Y11.21330
X40.21330 Y6.21330

G00 Z30.00000 (Retract)
T4
M5      (Spindle stop.)
G04 P1.00000
(MSG, Change tool bit to drill size 1.01600 mm)
M6      (Tool change.)
M0      (Temporary machine stop.)
M3      (Spindle on clockwise.)
G0 Z2.00000
G04 P1.00000

G81 R2.00000 Z-2.50000 F500.00000 X27.96330 Y18.46330
X35.21330 Y11.21330
X35.21330 Y18.46330
X6.21330 Y33.71330
X6.21330 Y36.25330
X20.71330 Y46.21330
X24.96330 Y46.21330
X34.21330 Y46.21330
X54.21330 Y44.96330
X66.21330 Y49.46330
X76.21330 Y49.46330
X85.21330 Y49.46330
X84.71330 Y3.46330

G00 Z30.00000 (Retract)
T5
M5      (Spindle stop.)
G04 P1.00000
(MSG, Change tool bit to drill size 1.10000 mm)
M6      (Tool change.)
M0      (Temporary machine stop.)
M3      (Spindle on clockwise.)
G0 Z2.00000
G04 P1.00000

G81 R2.00000 Z-2.50000 F500.00000 X20.71330 Y13.21330
X20.71330 Y8.71330
X27.21330 Y13.21330
X27.21330 Y8.71330

G00 Z30.00000 (Retract)
T6
M5      (Spindle stop.)
G04 P1.00000
(MSG, Change tool bit to drill size 1.50000 mm)
M6      (Tool change.)
M0      (Temporary machine stop.)
M3      (Spindle on clockwise.)
G0 Z2.00000
G04 P1.00000

G81 R2.00000 Z-2.50000 F500.00000 X39.46330 Y31.21330
X39.46330 Y26.21330
X39.46330 Y21.21330
X80.21330 Y8.21330
X85.21330 Y8.21330
X90.21330 Y8.21330
X75.46330 Y21.21330
X75.46330 Y26.21330
X75.46330 Y31.21330
X80.21330 Y44.21330
X85.21330 Y44.21330
X90.21330 Y44.21330

G00 Z30.00000 (Retract)
T7
M5      (Spindle stop.)
G04 P1.00000
(MSG, Change tool bit to drill size 3.20000 mm)
M6      (Tool change.)
M0      (Temporary machine stop.)
M3      (Spindle on clockwise.)
G0 Z2.00000
G04 P1.00000

G81 R2.00000 Z-2.50000 F500.00000 X6.71330 Y6.71330
X6.71330 Y46.71330
X57.46330 Y32.21330
X57.46330 Y20.21330
X79.21330 Y26.21330
X96.71330 Y6.71330
X91.21330 Y26.21330
X96.71330 Y46.71330

G00 Z30.000 ( All done -- retract )

M5      (Spindle off.)
G04 P1.000000
M9      (Coolant off.)
M2      (Program end.)

