( pcb2gcode 1.3.2 )
( Software-independent Gcode )

G94 ( Millimeters per minute feed rate. )
G21 ( Units == Millimeters. )

G90 ( Absolute coordinates. )
S1000 ( RPM spindle speed. )
G64 P0.05000 ( set maximum deviation from commanded toolpath )
F100.00000 ( Feedrate. )

F100.00000 ( Feedrate. )
M3 ( Spindle on clockwise. )
G04 P1.00000
G04 P0 ( dwell for no time -- G64 should not smooth over this point )
G00 Z2.00000 ( retract )

G00 X5.35942 Y34.83774 ( rapid move to begin. )
F50.00000
G01 Z-0.10000
G04 P0 ( dwell for no time -- G64 should not smooth over this point )
F100.00000
G01 X5.35942 Y34.83774
X5.12003 Y34.84543
X4.91523 Y34.95491
X4.79808 Y35.35336
X4.57090 Y35.35336
X4.11472 Y34.89598
X4.11469 Y17.83513
X4.61970 Y17.36244
X5.01655 Y20.84566
X5.11805 Y21.06951
X5.41398 Y21.20038
X7.01418 Y21.20038
X7.31009 Y21.06951
X7.41159 Y20.84566
X7.80846 Y17.36244
X10.08794 Y17.36244
X10.81280 Y18.08730
X10.81280 Y20.31277
X10.49144 Y20.38021
X10.31369 Y20.71277
X10.31369 Y22.71175
X10.43084 Y22.99461
X10.71369 Y23.11175
X12.20655 Y23.11175
X12.52192 Y23.31005
X16.17794 Y22.89184
X16.37596 Y22.74624
X16.45150 Y22.51234
X16.45150 Y20.91214
X16.37596 Y20.67825
X16.09676 Y20.51473
X12.61356 Y20.11788
X12.61353 Y18.08717
X20.59269 Y10.10573
X21.18393 Y10.02852
X21.77750 Y9.61290
X26.14714 Y9.61290
X26.51249 Y9.92450
X27.10779 Y10.10652
X27.60423 Y10.05435
X27.94708 Y9.90172
X28.31810 Y9.56766
X28.49074 Y9.28176
X28.58770 Y8.96215
X28.58770 Y8.46291
X28.47172 Y8.10596
X28.17830 Y7.70213
X27.60423 Y7.37071
X27.10779 Y7.31851
X26.77980 Y7.38153
X26.47741 Y7.52334
X26.14716 Y7.81214
X21.77747 Y7.81214
X21.41215 Y7.50056
X20.81687 Y7.31851
X20.32040 Y7.37071
X20.01266 Y7.50053
X19.74634 Y7.70213
X19.45292 Y8.10596
X19.33694 Y8.46291
X19.32292 Y8.82887
X11.71310 Y16.44090
X11.06843 Y15.79896
X10.67468 Y15.58855
X7.61357 Y15.56168
X7.54613 Y15.24034
X7.29160 Y15.07026
X5.21459 Y15.06257
X4.88200 Y15.24034
X4.81459 Y15.56168
X4.07548 Y15.57328
X3.68002 Y15.73737
X2.55054 Y16.85606
X2.36905 Y17.15576
X2.31396 Y17.46282
X2.31396 Y35.26822
X2.39898 Y35.64772
X2.57685 Y35.90411
X3.73006 Y37.02216
X4.06034 Y37.14258
X4.79808 Y37.15412
X4.91523 Y37.55259
X5.31370 Y37.66974
X5.36900 Y38.02186
X5.57738 Y38.35094
X18.07672 Y50.85028
X18.49965 Y51.08713
X61.73340 Y51.11396
X62.19987 Y50.98246
X62.85567 Y50.36466
X64.69636 Y50.36466
X64.72679 Y50.73496
X65.01831 Y50.97420
X67.48462 Y50.95145
X67.66412 Y50.80413
X67.73156 Y50.58188
X67.73156 Y48.34668
X67.55379 Y48.01411
X67.11434 Y47.94668
X67.11434 Y46.55979
X70.77473 Y46.10866
X70.93841 Y45.92529
X70.97260 Y45.76350
X70.97260 Y44.16330
X70.84171 Y43.86739
X70.61786 Y43.76589
X67.13466 Y43.36901
X67.13466 Y41.73178
X70.77473 Y41.28266
X70.93841 Y41.09929
X70.97260 Y40.93750
X70.97260 Y39.33730
X70.84171 Y39.04139
X70.61786 Y38.93989
X67.13466 Y38.54301
X67.13466 Y36.55780
X70.77473 Y36.10868
X70.93841 Y35.92531
X70.97260 Y35.76352
X70.97260 Y34.16332
X70.84171 Y33.86741
X70.61786 Y33.76591
X67.13466 Y33.36906
X67.13466 Y19.48466
X67.00258 Y19.01740
X67.00258 Y17.88118
X70.64265 Y17.43206
X70.80633 Y17.24869
X70.84052 Y17.08690
X70.84052 Y15.48670
X70.70963 Y15.19079
X70.48578 Y15.08929
X67.00258 Y14.69244
X67.00258 Y12.87992
X70.64265 Y12.43080
X70.80633 Y12.24743
X70.84052 Y12.08564
X70.84052 Y10.48544
X70.70963 Y10.18953
X70.48578 Y10.08803
X67.00258 Y9.69118
X67.00258 Y7.88120
X70.64265 Y7.43208
X70.80633 Y7.24871
X70.84052 Y7.08692
X70.80633 Y5.32494
X70.70963 Y5.19081
X70.48578 Y5.08931
X66.98566 Y4.69053
X66.76712 Y4.72741
X66.59555 Y4.88733
X65.10271 Y4.88733
X64.77012 Y5.06510
X64.70271 Y5.28733
X64.70271 Y7.28631
X64.88046 Y7.61889
X65.20182 Y7.68631
X65.20182 Y9.88605
X64.88046 Y9.95348
X64.71038 Y10.20802
X64.70271 Y12.28503
X64.88046 Y12.61761
X65.20182 Y12.68503
X65.20182 Y14.88731
X64.81986 Y15.00448
X64.70271 Y15.38642
X51.61653 Y15.38642
X51.60883 Y15.13562
X51.49936 Y14.93082
X51.11742 Y14.81365
X51.11742 Y12.61391
X51.43876 Y12.54649
X51.61653 Y12.21391
X51.60883 Y10.13690
X51.43876 Y9.88236
X51.11742 Y9.81493
X51.11742 Y7.61265
X51.43876 Y7.54523
X51.61653 Y7.21265
X51.61653 Y5.21367
X51.54909 Y4.99144
X51.21653 Y4.81367
X49.72365 Y4.81367
X49.55209 Y4.65375
X49.33355 Y4.61687
X45.83343 Y5.01565
X45.60958 Y5.11715
X45.48736 Y5.33040
X45.47872 Y7.01326
X45.51288 Y7.17505
X45.67656 Y7.35842
X49.31666 Y7.80757
X49.31666 Y9.62006
X45.83343 Y10.01691
X45.60958 Y10.11841
X45.51288 Y10.25254
X45.47872 Y12.01452
X45.51288 Y12.17631
X45.67656 Y12.35968
X49.31666 Y12.80883
X49.31666 Y14.61878
X45.83343 Y15.01563
X45.55424 Y15.17915
X45.47872 Y15.41304
X45.47872 Y17.01324
X45.51288 Y17.17503
X45.67656 Y17.35840
X49.40828 Y17.81095
X49.72367 Y17.61263
X51.29456 Y17.60495
X51.54909 Y17.43488
X51.61653 Y17.18718
X64.70271 Y17.18718
X64.81986 Y17.56914
X65.20182 Y17.68629
X65.20373 Y19.39174
X65.33390 Y19.81994
X65.33390 Y33.56393
X65.01254 Y33.63136
X64.84246 Y33.88590
X64.83479 Y35.96291
X65.01254 Y36.29549
X65.33390 Y36.36291
X65.33390 Y38.73791
X65.01254 Y38.80534
X64.84246 Y39.05988
X64.83479 Y41.13689
X65.01254 Y41.46947
X65.33390 Y41.53689
X65.33390 Y43.56391
X65.01254 Y43.63134
X64.84246 Y43.88588
X64.83479 Y45.96289
X64.95194 Y46.24574
X65.31358 Y46.36289
X65.31358 Y47.94668
X65.01831 Y47.95437
X64.81351 Y48.06385
X64.70403 Y48.26865
X64.69636 Y48.56390
X62.26896 Y48.59074
X61.95095 Y48.73903
X61.36040 Y49.31320
X35.11288 Y49.31320
X35.11288 Y47.73068
X35.48316 Y47.70025
X35.72240 Y47.40873
X35.69965 Y44.94242
X35.55233 Y44.76291
X35.33010 Y44.69548
X33.09490 Y44.69548
X32.81205 Y44.81265
X32.70257 Y45.01745
X32.69490 Y47.33068
X32.87265 Y47.66326
X33.31212 Y47.73068
X33.31212 Y49.31320
X19.08637 Y49.31322
X7.40224 Y37.62910
X7.56264 Y37.49199
X7.63008 Y37.26974
X7.63008 Y35.23774
X7.51291 Y34.95491
X7.23008 Y34.83774
X6.23984 Y34.98310
X5.59036 Y34.90647
X5.32379 Y34.81295
X4.96245 Y34.37274
X4.83512 Y34.02895
X4.82257 Y33.45966
X4.99277 Y33.00015
X5.31368 Y32.62740
X5.31370 Y27.86407
X5.06151 Y27.83364
X4.84502 Y27.61715
X4.81457 Y25.97123
X4.65465 Y25.79966
X4.61777 Y25.58111
X5.01655 Y22.08099
X5.11805 Y21.85714
X5.33130 Y21.73492
X7.09683 Y21.73492
X7.31009 Y21.85714
X7.41159 Y22.08099
X7.81187 Y25.65584
X7.61357 Y25.97123
X7.58312 Y27.61715
X7.36663 Y27.83364
X7.11446 Y27.86407
X7.11446 Y32.62324
X7.30466 Y32.81336
X9.96020 Y32.81336
X10.03320 Y32.24874
X10.25090 Y32.00935
X12.01290 Y31.97516
X12.24678 Y32.05070
X12.41031 Y32.32989
X12.80716 Y35.81312
X13.35120 Y35.82465
X13.74622 Y35.98838
X17.09282 Y39.32076
X17.68378 Y39.39800
X18.17832 Y39.70359
X18.50578 Y40.18385
X18.60174 Y40.83016
X21.43770 Y43.68247
X21.60120 Y44.07724
X21.61278 Y44.69548
X21.90803 Y44.70317
X22.11283 Y44.81265
X22.22230 Y45.01745
X22.23000 Y45.31270
X23.44676 Y45.31270
X23.47719 Y44.94242
X23.76871 Y44.70317
X26.08196 Y44.69548
X26.36479 Y44.81265
X26.48196 Y45.09548
X26.48196 Y47.33068
X26.41452 Y47.55293
X26.08196 Y47.73068
X23.76871 Y47.72300
X23.47719 Y47.48376
X23.44676 Y47.11346
X22.23000 Y47.11346
X22.19955 Y47.48376
X21.90803 Y47.72300
X19.59480 Y47.73068
X19.37255 Y47.66326
X19.19480 Y47.33068
X19.20247 Y45.01745
X19.37255 Y44.76291
X19.81202 Y44.69548
X19.81202 Y44.58712
X17.33209 Y42.10719
X16.74076 Y42.02998
X16.24622 Y41.72439
X15.91876 Y41.24413
X15.82282 Y40.59739
X12.84117 Y37.61388
X12.61229 Y37.61386
X12.54485 Y37.93522
X12.29032 Y38.10529
X10.21331 Y38.11297
X9.93046 Y37.99582
X9.81331 Y37.71297
X9.81329 Y36.22013
X9.61499 Y35.90474
X9.75502 Y34.61412
X7.30115 Y34.61412
X7.07059 Y34.83774
G04 P0 ( dwell for no time -- G64 should not smooth over this point )
G00 Z2.00000 ( retract )

G00 X14.85140 Y33.29210 ( rapid move to begin. )
F50.00000
G01 Z-0.10000
G04 P0 ( dwell for no time -- G64 should not smooth over this point )
F100.00000
G01 X14.85140 Y33.29210
X14.93245 Y32.87924
X15.08996 Y32.60647
X15.44429 Y32.31079
X15.80512 Y32.19357
X16.26550 Y32.22448
X16.60715 Y32.39172
X21.26145 Y32.39172
X21.27250 Y30.98425
X21.04712 Y30.53630
X21.02975 Y30.05400
X21.25919 Y29.53874
X21.55682 Y29.27077
X21.85426 Y29.13833
X22.25253 Y29.09645
X22.71656 Y29.22896
X22.97999 Y29.42035
X23.24943 Y29.82073
X23.33269 Y30.29612
X23.24943 Y30.68781
X23.07328 Y30.98425
X23.07328 Y32.31298
X27.06372 Y32.31298
X27.02306 Y30.98425
X26.79768 Y30.53630
X26.79768 Y29.97224
X27.14597 Y29.39073
X27.52529 Y29.16416
X27.84383 Y29.09645
X28.24208 Y29.13833
X28.53956 Y29.27077
X28.88630 Y29.60638
X29.04921 Y29.97224
X29.04921 Y30.53630
X28.82384 Y30.98425
X28.86448 Y32.31298
X30.42048 Y32.31298
X32.56069 Y30.17089
X32.65058 Y29.81974
X32.93463 Y29.42883
X33.39348 Y29.17643
X34.03074 Y29.17643
X34.45708 Y29.40249
X34.77364 Y29.81974
X34.87412 Y30.29236
X34.78865 Y30.72591
X34.45705 Y31.18225
X33.83231 Y31.44592
X31.69401 Y33.58610
X31.69404 Y36.17035
X35.33729 Y39.81360
X36.14712 Y39.81360
X36.47739 Y39.52480
X36.77978 Y39.38299
X37.10777 Y39.31997
X37.60421 Y39.37217
X37.94711 Y39.52482
X38.31808 Y39.85886
X38.49072 Y40.14476
X38.59946 Y40.57644
X38.97462 Y40.95159
X39.06926 Y40.42294
X39.33172 Y40.23374
X41.01462 Y40.22508
X41.24850 Y40.30062
X41.41203 Y40.57981
X41.80888 Y44.06302
X43.61883 Y44.06302
X44.01571 Y40.57981
X44.11721 Y40.35596
X44.41314 Y40.22508
X46.01334 Y40.22508
X46.17511 Y40.25927
X46.35848 Y40.42294
X46.80760 Y44.06302
X48.62009 Y44.06302
X49.06924 Y40.42294
X49.25260 Y40.25927
X49.41440 Y40.22508
X51.09725 Y40.23374
X51.31051 Y40.35596
X51.41201 Y40.57981
X51.80886 Y44.06302
X52.69486 Y44.06302
X52.72529 Y43.69274
X53.01681 Y43.45349
X55.33006 Y43.44580
X55.55229 Y43.51323
X55.73006 Y43.84580
X55.69961 Y46.23408
X55.55229 Y46.41358
X55.33006 Y46.48100
X53.09486 Y46.48100
X52.76227 Y46.30325
X52.69486 Y45.86378
X51.61399 Y45.86378
X51.54655 Y46.18514
X51.29202 Y46.35521
X49.21501 Y46.36289
X48.88242 Y46.18514
X48.81501 Y45.86378
X46.61273 Y45.86378
X46.54529 Y46.18514
X46.29076 Y46.35521
X44.21375 Y46.36289
X43.88116 Y46.18514
X43.81375 Y45.86378
X41.61401 Y45.86378
X41.54657 Y46.18514
X41.29204 Y46.35521
X39.06195 Y46.33246
X38.82270 Y46.04094
X38.81503 Y44.47005
X38.61671 Y44.15466
X38.72100 Y43.17750
X37.54478 Y42.06846
X37.10777 Y42.10798
X36.74072 Y42.02998
X36.14712 Y41.61436
X34.82754 Y41.60285
X34.43267 Y41.43932
X30.06831 Y37.07497
X29.89519 Y36.58246
X29.89328 Y34.11374
X16.60715 Y34.19248
X16.30596 Y34.34891
X15.88828 Y34.39938
X15.58013 Y34.33390
X15.18945 Y34.08826
X14.94746 Y33.74406
X14.85140 Y33.29210
G04 P0 ( dwell for no time -- G64 should not smooth over this point )
G00 Z2.00000 ( retract )

G00 X9.61499 Y27.51972 ( rapid move to begin. )
F50.00000
G01 Z-0.10000
G04 P0 ( dwell for no time -- G64 should not smooth over this point )
F100.00000
G01 X9.61499 Y27.51972
X10.01527 Y31.09456
X10.11677 Y31.31841
X10.41270 Y31.44928
X12.01290 Y31.44928
X12.17467 Y31.41511
X12.35804 Y31.25143
X12.80716 Y27.61134
X14.08844 Y27.61134
X14.86804 Y28.39094
X14.96649 Y28.70138
X15.21907 Y29.03788
X15.58013 Y29.25390
X15.88828 Y29.31938
X16.26550 Y29.27973
X16.55323 Y29.15164
X16.83522 Y28.89774
X16.99608 Y28.61464
X23.98237 Y28.61464
X24.31476 Y28.80437
X24.63327 Y28.87206
X25.07196 Y28.81938
X25.44341 Y28.61464
X29.73293 Y28.61464
X30.06532 Y28.80437
X30.38383 Y28.87206
X30.82252 Y28.81938
X31.14151 Y28.65274
X35.52159 Y28.65274
X36.08931 Y28.90143
X36.61118 Y28.85748
X36.99705 Y28.64225
X37.21496 Y28.40026
X37.41412 Y27.75236
X37.32865 Y27.31883
X37.15250 Y27.02239
X37.12563 Y23.28925
X36.91511 Y22.89539
X36.11364 Y22.09120
X36.11364 Y19.98118
X36.48392 Y19.95075
X36.72316 Y19.65923
X36.70041 Y17.19292
X36.55309 Y17.01341
X36.33086 Y16.94598
X34.09566 Y16.94598
X33.81281 Y17.06315
X33.70333 Y17.26795
X33.70333 Y19.65923
X33.94258 Y19.95075
X34.31288 Y19.98118
X34.33970 Y22.67784
X34.55022 Y23.07170
X35.35174 Y23.87594
X35.35174 Y26.85198
X31.23908 Y26.85198
X30.86158 Y26.62416
X30.54309 Y26.55645
X30.10438 Y26.60915
X29.73296 Y26.81388
X25.44341 Y26.81388
X25.03152 Y26.59833
X24.63327 Y26.55645
X24.31473 Y26.62416
X23.98240 Y26.81388
X16.46298 Y26.81388
X15.98015 Y26.95635
X15.06893 Y26.04786
X14.67518 Y25.83745
X12.61229 Y25.81058
X12.54485 Y25.48924
X12.29032 Y25.31916
X10.21331 Y25.31147
X9.93046 Y25.42864
X9.82098 Y25.63344
X9.81331 Y27.20433
X9.61499 Y27.51972
G04 P0 ( dwell for no time -- G64 should not smooth over this point )
G00 Z2.00000 ( retract )

G00 X16.97738 Y20.91214 ( rapid move to begin. )
F50.00000
G01 Z-0.10000
G04 P0 ( dwell for no time -- G64 should not smooth over this point )
F100.00000
G01 X16.97738 Y20.91214
X16.97738 Y22.51234
X17.01154 Y22.67413
X17.17522 Y22.85750
X20.81532 Y23.30662
X20.87062 Y25.02468
X21.25919 Y25.88980
X21.55677 Y26.15777
X21.85426 Y26.29021
X22.33569 Y26.32333
X22.71656 Y26.19958
X22.97999 Y26.00819
X23.24943 Y25.60781
X23.33490 Y25.17426
X23.23442 Y24.70164
X22.97999 Y24.34035
X22.61608 Y24.10421
X22.61608 Y23.11175
X22.99802 Y22.99461
X23.11519 Y22.61264
X27.02308 Y22.61264
X27.02308 Y24.44429
X26.79768 Y24.89224
X26.78031 Y25.37454
X27.00975 Y25.88980
X27.30733 Y26.15777
X27.60482 Y26.29021
X28.08625 Y26.32333
X28.46712 Y26.19958
X28.73055 Y26.00819
X28.99999 Y25.60781
X29.08325 Y25.13242
X28.99999 Y24.74073
X28.82384 Y24.44429
X28.82384 Y22.61264
X29.84134 Y22.61267
X32.56069 Y25.33392
X32.74926 Y25.86026
X33.16843 Y26.23768
X33.63249 Y26.37016
X34.11027 Y26.30247
X34.62581 Y25.92790
X34.83787 Y25.49440
X34.83787 Y24.93034
X34.51921 Y24.37845
X34.25578 Y24.18706
X33.83224 Y24.05882
X30.74647 Y20.98719
X30.25376 Y20.81381
X28.86448 Y20.81188
X28.86448 Y19.98118
X29.30393 Y19.91376
X29.48170 Y19.58118
X29.48170 Y17.34598
X29.41426 Y17.12375
X29.23476 Y16.97643
X26.84650 Y16.94598
X26.51391 Y17.12375
X26.44650 Y17.34598
X26.45417 Y19.65923
X26.69342 Y19.95075
X27.06372 Y19.98118
X27.06372 Y20.81188
X23.11519 Y20.81188
X22.99802 Y20.42994
X22.61608 Y20.31277
X22.60785 Y14.11378
X26.14714 Y14.11378
X26.51249 Y14.42538
X27.02463 Y14.59866
X27.39987 Y14.59866
X27.87467 Y14.44441
X28.17830 Y14.22381
X28.47172 Y13.81997
X28.60954 Y13.17159
X28.50576 Y12.68327
X28.31810 Y12.35828
X27.94713 Y12.02424
X27.60423 Y11.87159
X27.10779 Y11.81939
X26.77980 Y11.88241
X26.47741 Y12.02422
X26.14714 Y12.31302
X21.77747 Y12.31302
X21.41215 Y12.00144
X20.81687 Y11.81939
X20.27994 Y11.88241
X19.77595 Y12.17342
X19.55741 Y12.42589
X19.35431 Y12.88200
X19.31510 Y13.25523
X19.43389 Y13.78264
X19.74634 Y14.22381
X20.01263 Y14.42538
X20.32040 Y14.55523
X20.81532 Y14.60740
X20.81530 Y20.11788
X17.33209 Y20.51473
X17.10824 Y20.61623
X16.97738 Y20.91214
G04 P0 ( dwell for no time -- G64 should not smooth over this point )
G00 Z2.00000 ( retract )

G00 X33.69566 Y10.09682 ( rapid move to begin. )
F50.00000
G01 Z-0.10000
G04 P0 ( dwell for no time -- G64 should not smooth over this point )
F100.00000
G01 X33.69566 Y10.09682
X33.69566 Y12.33202
X33.76307 Y12.55427
X33.94258 Y12.70159
X36.40889 Y12.72434
X36.70041 Y12.48510
X36.73086 Y12.11480
X38.81503 Y12.11480
X38.93218 Y12.49676
X39.31414 Y12.61391
X39.31414 Y14.81365
X38.99278 Y14.88108
X38.81503 Y15.21365
X38.82270 Y17.29068
X38.99278 Y17.54521
X39.31414 Y17.61263
X39.31412 Y19.57254
X38.67518 Y19.76675
X38.32923 Y20.01808
X37.95562 Y20.54343
X37.81300 Y21.21440
X37.97462 Y21.92268
X38.15443 Y22.21660
X38.56230 Y22.59090
X38.56228 Y24.83666
X38.15443 Y25.21093
X37.97462 Y25.50486
X37.81300 Y26.21312
X37.97462 Y26.92140
X38.15443 Y27.21532
X38.56230 Y27.58959
X38.56228 Y29.83792
X38.15443 Y30.21219
X37.95562 Y30.54341
X37.84252 Y30.91273
X37.84252 Y31.51605
X37.97462 Y31.92266
X38.32923 Y32.41072
X38.67515 Y32.66205
X39.31414 Y32.85626
X39.31414 Y33.56139
X38.99278 Y33.62882
X38.82270 Y33.88336
X38.81503 Y35.45425
X38.61671 Y35.76964
X39.06926 Y39.50135
X39.25262 Y39.66503
X39.41442 Y39.69920
X41.01462 Y39.69920
X41.24850 Y39.62368
X41.41203 Y39.34448
X41.80890 Y35.86126
X43.61886 Y35.86128
X44.06798 Y39.50135
X44.25134 Y39.66503
X44.41314 Y39.69920
X46.17511 Y39.66503
X46.30925 Y39.56833
X46.41075 Y39.34448
X46.80762 Y35.86126
X48.62012 Y35.86128
X49.06924 Y39.50135
X49.25260 Y39.66503
X49.41440 Y39.69920
X51.01460 Y39.69920
X51.24848 Y39.62368
X51.41201 Y39.34448
X51.81079 Y35.84436
X51.77391 Y35.62582
X51.61396 Y35.45425
X51.61399 Y33.96139
X51.49682 Y33.67856
X51.21399 Y33.56139
X49.21501 Y33.56139
X48.88242 Y33.73916
X48.81501 Y34.06050
X46.61273 Y34.06050
X46.54529 Y33.73916
X46.29076 Y33.56908
X44.21375 Y33.56139
X43.88116 Y33.73916
X43.81375 Y34.06050
X41.61401 Y34.06050
X41.49684 Y33.67856
X41.11490 Y33.56139
X41.06545 Y30.83099
X40.79727 Y30.24473
X40.36306 Y29.83790
X40.36303 Y27.58959
X40.77091 Y27.21532
X40.95071 Y26.92140
X41.11015 Y26.25498
X40.95071 Y25.50486
X40.77091 Y25.21093
X40.36306 Y24.83664
X40.36303 Y22.59087
X40.79727 Y22.18407
X41.08282 Y21.51607
X41.11487 Y17.80752
X44.59810 Y17.41067
X44.82195 Y17.30917
X44.95284 Y17.01324
X44.95284 Y15.41304
X44.91865 Y15.25126
X44.75497 Y15.06790
X41.11490 Y14.61878
X41.11487 Y12.80880
X44.75497 Y12.35968
X44.91865 Y12.17631
X44.95284 Y12.01452
X44.95284 Y10.41432
X44.82195 Y10.11841
X44.59810 Y10.01691
X41.11490 Y9.62006
X41.11487 Y7.80754
X44.75497 Y7.35842
X44.91865 Y7.17505
X44.95284 Y7.01326
X44.95284 Y5.41306
X44.87730 Y5.17917
X44.59810 Y5.01565
X41.09798 Y4.61687
X40.87944 Y4.65375
X40.70787 Y4.81367
X39.06195 Y4.84412
X38.82270 Y5.13564
X38.81503 Y7.21265
X38.99278 Y7.54523
X39.31414 Y7.61265
X39.31414 Y9.81493
X38.93218 Y9.93210
X38.81503 Y10.31404
X36.73086 Y10.31404
X36.66342 Y9.87459
X36.33086 Y9.69682
X34.01761 Y9.70451
X33.81281 Y9.81399
X33.69566 Y10.09682
G04 P0 ( dwell for no time -- G64 should not smooth over this point )
G00 Z2.00000 ( retract )

G00 X71.36640 Y5.48672 ( rapid move to begin. )
F50.00000
G01 Z-0.10000
G04 P0 ( dwell for no time -- G64 should not smooth over this point )
F100.00000
G01 X71.36640 Y5.48672
X71.36640 Y7.08692
X71.40056 Y7.24871
X71.56424 Y7.43208
X75.20434 Y7.88123
X75.20432 Y9.69118
X71.72111 Y10.08803
X71.49726 Y10.18953
X71.36640 Y10.48544
X71.36640 Y12.08564
X71.40056 Y12.24743
X71.56424 Y12.43080
X75.20434 Y12.87995
X75.20432 Y14.69244
X71.56424 Y15.14156
X71.40056 Y15.32492
X71.36640 Y15.48670
X71.36640 Y17.08690
X71.49726 Y17.38283
X71.72111 Y17.48433
X75.20434 Y17.88118
X75.20432 Y19.58969
X74.63729 Y19.78575
X74.15385 Y20.21221
X73.94003 Y20.58255
X73.81461 Y21.17256
X73.97404 Y21.92268
X74.15385 Y22.21660
X74.56172 Y22.59087
X74.56170 Y24.83666
X74.15385 Y25.21093
X73.97404 Y25.50486
X73.81242 Y26.21312
X73.97404 Y26.92140
X74.15385 Y27.21532
X74.56172 Y27.58959
X74.56170 Y29.83792
X74.15385 Y30.21219
X73.97404 Y30.50612
X73.81242 Y31.21438
X73.95504 Y31.88537
X74.39078 Y32.46667
X74.99276 Y32.79413
X75.63452 Y32.85501
X76.24958 Y32.66205
X76.59553 Y32.41072
X76.96913 Y31.88537
X77.10957 Y31.25624
X76.95013 Y30.50612
X76.77033 Y30.21219
X76.36248 Y29.83790
X76.36245 Y27.58959
X76.77033 Y27.21532
X76.95013 Y26.92140
X77.11178 Y26.21312
X76.95013 Y25.50486
X76.77033 Y25.21093
X76.36248 Y24.83664
X76.36245 Y22.59087
X76.79669 Y22.18407
X77.06487 Y21.59781
X77.11178 Y21.21440
X77.00088 Y20.63408
X77.00510 Y17.68629
X77.32644 Y17.61887
X77.50421 Y17.28629
X77.49651 Y15.20928
X77.32644 Y14.95474
X77.00510 Y14.88731
X77.00510 Y12.68503
X77.32644 Y12.61761
X77.50421 Y12.28503
X77.49651 Y10.20802
X77.32644 Y9.95348
X77.00510 Y9.88605
X77.00510 Y7.68631
X77.38704 Y7.56916
X77.50421 Y7.18720
X77.91394 Y7.18720
X78.60197 Y7.87432
X78.61165 Y8.59555
X78.90619 Y9.21434
X79.38960 Y9.64081
X80.08383 Y9.85496
X80.42821 Y9.84622
X81.00192 Y9.65981
X81.31827 Y9.43809
X81.59127 Y9.11252
X83.83630 Y9.11252
X84.38832 Y9.64081
X85.08255 Y9.85496
X85.42693 Y9.84622
X86.00064 Y9.65981
X86.31699 Y9.43809
X86.58999 Y9.11252
X88.83756 Y9.11252
X89.08097 Y9.40848
X89.42689 Y9.65981
X90.00063 Y9.84622
X90.42819 Y9.84622
X91.03921 Y9.64081
X91.54901 Y9.18181
X91.81719 Y8.59555
X91.83456 Y7.91049
X91.70245 Y7.50388
X91.34785 Y7.01582
X91.00192 Y6.76449
X90.42819 Y6.57808
X90.00063 Y6.57808
X89.42692 Y6.76449
X89.11056 Y6.98621
X88.83756 Y7.31176
X86.58999 Y7.31176
X86.07310 Y6.80630
X85.61316 Y6.61765
X85.61316 Y4.97994
X86.05261 Y4.91252
X86.23038 Y4.57994
X86.22268 Y2.26671
X86.11321 Y2.06191
X85.90841 Y1.95243
X83.59518 Y1.94474
X83.37293 Y2.01217
X83.22561 Y2.19168
X83.20285 Y4.65799
X83.44210 Y4.94951
X83.81240 Y4.97994
X83.81240 Y7.31176
X81.59127 Y7.31176
X81.28574 Y6.95987
X80.76326 Y6.65824
X80.38686 Y6.57152
X79.87840 Y6.60406
X78.66623 Y5.47163
X78.32577 Y5.38837
X77.50421 Y5.38644
X77.43677 Y5.06510
X77.18224 Y4.89502
X75.61135 Y4.88733
X75.43977 Y4.72741
X75.22123 Y4.69053
X71.72111 Y5.08931
X71.49726 Y5.19081
X71.36640 Y5.48672
G04 P0 ( dwell for no time -- G64 should not smooth over this point )
G00 Z2.00000 ( retract )

G00 X71.49848 Y34.16332 ( rapid move to begin. )
F50.00000
G01 Z-0.10000
G04 P0 ( dwell for no time -- G64 should not smooth over this point )
F100.00000
G01 X71.49848 Y34.16332
X71.49848 Y35.76352
X71.53264 Y35.92531
X71.69632 Y36.10868
X75.33642 Y36.55783
X75.33640 Y38.54304
X71.85319 Y38.93989
X71.62934 Y39.04139
X71.49848 Y39.33730
X71.49848 Y40.93750
X71.53264 Y41.09929
X71.69632 Y41.28266
X75.33642 Y41.73181
X75.33640 Y43.36904
X71.85319 Y43.76589
X71.62934 Y43.86739
X71.49848 Y44.16330
X71.49848 Y45.76350
X71.53264 Y45.92529
X71.69632 Y46.10866
X75.31356 Y46.55519
X75.31356 Y47.94668
X74.87409 Y48.01411
X74.69634 Y48.34668
X74.69634 Y50.58188
X74.76375 Y50.80413
X74.94326 Y50.95145
X77.33154 Y50.98188
X77.55377 Y50.91446
X77.70109 Y50.73496
X77.72384 Y48.26865
X77.48460 Y47.97713
X77.11432 Y47.94668
X77.11432 Y46.36289
X77.51912 Y46.24574
X77.63629 Y45.86378
X80.42821 Y45.84818
X81.03923 Y45.64277
X81.59127 Y45.11448
X83.83630 Y45.11450
X84.31278 Y45.59057
X84.31278 Y47.94668
X83.87331 Y48.01411
X83.69556 Y48.34668
X83.69556 Y50.58188
X83.81271 Y50.86473
X84.09556 Y50.98188
X86.48382 Y50.95145
X86.66332 Y50.80413
X86.73076 Y50.58188
X86.73076 Y48.34668
X86.55299 Y48.01411
X86.11354 Y47.94668
X86.11354 Y45.59057
X86.58999 Y45.11448
X88.83756 Y45.11450
X89.08097 Y45.41044
X89.42689 Y45.66177
X90.00063 Y45.84818
X90.38684 Y45.85473
X91.07434 Y45.61996
X91.52265 Y45.21630
X91.70245 Y44.92238
X91.86410 Y44.21410
X91.70245 Y43.50584
X91.52265 Y43.21191
X91.07436 Y42.80826
X90.38684 Y42.57348
X90.00063 Y42.58004
X89.42692 Y42.76645
X89.11056 Y42.98817
X88.83756 Y43.31372
X86.58999 Y43.31372
X86.03798 Y42.78545
X85.34377 Y42.57128
X84.99937 Y42.58004
X84.42566 Y42.76645
X84.10930 Y42.98817
X83.83630 Y43.31372
X81.59127 Y43.31372
X81.34787 Y43.01778
X81.00194 Y42.76645
X80.42821 Y42.58004
X80.04200 Y42.57348
X79.42694 Y42.76645
X79.08099 Y43.01778
X78.70738 Y43.54313
X78.57843 Y44.06302
X77.63629 Y44.06302
X77.51912 Y43.68108
X77.13718 Y43.56391
X77.13718 Y41.53689
X77.45852 Y41.46947
X77.63629 Y41.13689
X77.62859 Y39.05988
X77.45852 Y38.80534
X77.13718 Y38.73791
X77.13718 Y36.36291
X77.45852 Y36.29549
X77.63629 Y35.96291
X77.63629 Y33.96393
X77.56885 Y33.74170
X77.23629 Y33.56393
X75.74343 Y33.56393
X75.57185 Y33.40401
X75.35331 Y33.36713
X71.85319 Y33.76591
X71.62934 Y33.86741
X71.49848 Y34.16332

G04 P0 ( dwell for no time -- G64 should not smooth over this point )
G00 Z30.000 ( retract )

M5 ( Spindle off. )
G04 P1.000000
M9 ( Coolant off. )
M2 ( Program end. )

