( pcb2gcode 1.3.2 )
( Software-independent Gcode )

G94 ( Millimeters per minute feed rate. )
G21 ( Units == Millimeters. )

G90 ( Absolute coordinates. )
S1000 ( RPM spindle speed. )
G64 P0.05000 ( set maximum deviation from commanded toolpath )
F100.00000 ( Feedrate. )

F100.00000 ( Feedrate. )
M3 ( Spindle on clockwise. )
G04 P1.00000
G04 P0 ( dwell for no time -- G64 should not smooth over this point )
G00 Z2.00000 ( retract )

G00 X0.12580 Y1.71332 ( rapid move to begin. )
G01 Z-0.50000 F50.00000 ( plunge. )
G04 P0 ( dwell for no time -- G64 should not smooth over this point )
F100.00000
G01 X0.12580 Y1.71332
X0.12580 Y51.71332
X0.15628 Y52.02302
X0.39332 Y52.59528
X0.83131 Y53.03328
X1.10576 Y53.17997
X1.71328 Y53.30079
X101.71328 Y53.30079
X102.02296 Y53.27031
X102.59522 Y53.03328
X103.03322 Y52.59528
X103.17990 Y52.32084
X103.30076 Y51.71332
X103.30076 Y1.71332
X103.27025 Y1.40364
X103.03322 Y0.83138
X102.59522 Y0.39338
X102.32077 Y0.24670
X101.71328 Y0.12584
X1.71328 Y0.12584
X1.10576 Y0.24670
X0.59075 Y0.59082
X0.24663 Y1.10583
X0.12580 Y1.71332
G01 Z-1.00000 F50.00000 ( plunge. )
G04 P0 ( dwell for no time -- G64 should not smooth over this point )
F100.00000
G01 X0.12580 Y1.71332
X0.12580 Y51.71332
X0.15628 Y52.02302
X0.39332 Y52.59528
X0.83131 Y53.03328
X1.10576 Y53.17997
X1.71328 Y53.30079
X101.71328 Y53.30079
X102.02296 Y53.27031
X102.59522 Y53.03328
X103.03322 Y52.59528
X103.17990 Y52.32084
X103.30076 Y51.71332
X103.30076 Y1.71332
X103.27025 Y1.40364
X103.03322 Y0.83138
X102.59522 Y0.39338
X102.32077 Y0.24670
X101.71328 Y0.12584
X1.71328 Y0.12584
X1.10576 Y0.24670
X0.59075 Y0.59082
X0.24663 Y1.10583
X0.12580 Y1.71332
G01 Z-1.50000 F50.00000 ( plunge. )
G04 P0 ( dwell for no time -- G64 should not smooth over this point )
F100.00000
G01 X0.12580 Y1.71332
X0.12580 Y51.71332
X0.15628 Y52.02302
X0.39332 Y52.59528
X0.83131 Y53.03328
X1.10576 Y53.17997
X1.71328 Y53.30079
X101.71328 Y53.30079
X102.02296 Y53.27031
X102.59522 Y53.03328
X103.03322 Y52.59528
X103.17990 Y52.32084
X103.30076 Y51.71332
X103.30076 Y1.71332
X103.27025 Y1.40364
X103.03322 Y0.83138
X102.59522 Y0.39338
X102.32077 Y0.24670
X101.71328 Y0.12584
X1.71328 Y0.12584
X1.10576 Y0.24670
X0.59075 Y0.59082
X0.24663 Y1.10583
X0.12580 Y1.71332
G01 Z-2.00000 F50.00000 ( plunge. )
G04 P0 ( dwell for no time -- G64 should not smooth over this point )
F100.00000
G01 X0.12580 Y1.71332
X0.12580 Y51.71332
X0.15628 Y52.02302
X0.39332 Y52.59528
X0.83131 Y53.03328
X1.10576 Y53.17997
X1.71328 Y53.30079
X101.71328 Y53.30079
X102.02296 Y53.27031
X102.59522 Y53.03328
X103.03322 Y52.59528
X103.17990 Y52.32084
X103.30076 Y51.71332
X103.30076 Y1.71332
X103.27025 Y1.40364
X103.03322 Y0.83138
X102.59522 Y0.39338
X102.32077 Y0.24670
X101.71328 Y0.12584
X1.71328 Y0.12584
X1.10576 Y0.24670
X0.59075 Y0.59082
X0.24663 Y1.10583
X0.12580 Y1.71332

G04 P0 ( dwell for no time -- G64 should not smooth over this point )
G00 Z30.000 ( retract )

M5 ( Spindle off. )
G04 P1.000000
M9 ( Coolant off. )
M2 ( Program end. )

